X: 1
T:The Foggy Dew
M:C|
L:1/8
Q:80
C:Arr. by Kent Hiestand
S:March 2/4
K:HP
|: ce|
{gfg}f2ec|
{gfg}f2ec|  !
{gef}B2{d}c2|
{G}A2Bc|
{Gdc}dfed|  !
{gBd}B2{G}A2|
{GdGe}B4-|
B2:|  !
{g}G2|
{gAd}A2{GdG}c2|
{gef}e2dc|  !
{gBd}B2{G}B2|
{GdG}c2AB|
{GdG}c2{ag}ag|  !
fece|
{gfg}f4-|
f2ce|
{gfg}f2ec|
{gfg}f2ec|  !
{gBd}B2{d}c2|
{G}A2Bc|
{Gdc}dfed|  !
{gBd}B2{G}A2|
{GdGe}B4-|
B2|]  !
